static/images/navigation/company/network.svg

<svg height="57.668" viewBox="0 0 57.671 57.668" width="57.671" xmlns="http://www.w3.org/2000/svg"><g fill="#414042"><path d="m2.108 4.215a4.477 4.477 0 0 1 -4.471-4.471 4.477 4.477 0 0 1 4.471-4.469 4.476 4.476 0 0 1 4.471 4.469 4.476 4.476 0 0 1 -4.471 4.471m0-7.258a2.791 2.791 0 0 0 -2.787 2.787 2.79 2.79 0 0 0 2.787 2.787 2.79 2.79 0 0 0 2.792-2.787 2.791 2.791 0 0 0 -2.792-2.787" transform="translate(51.092 4.725)"/><path d="m2.108 4.215a4.477 4.477 0 0 1 -4.471-4.471 4.477 4.477 0 0 1 4.471-4.469 4.474 4.474 0 0 1 4.469 4.469 4.474 4.474 0 0 1 -4.469 4.471m0-7.258a2.791 2.791 0 0 0 -2.787 2.787 2.79 2.79 0 0 0 2.787 2.787 2.79 2.79 0 0 0 2.792-2.787 2.791 2.791 0 0 0 -2.792-2.787" transform="translate(2.363 53.453)"/><path d="m22.072 25.7c-7.417 0-18.94-6.412-29.67-17.143-14.151-14.146-20.793-29.675-15.12-35.347s21.2.969 35.35 15.12c6.655 6.654 11.915 13.922 14.811 20.47 3.007 6.793 3.116 12.079.31 14.885a7.743 7.743 0 0 1 -5.681 2.015m-28.48-18.328c13.035 13.028 28.132 19.958 32.972 15.12 2.246-2.246 2.006-6.989-.66-13.014-2.816-6.36-7.951-13.447-14.46-19.958-13.035-13.033-28.134-19.956-32.972-15.12s2.087 19.937 15.12 32.972" transform="translate(26.466 30.24)"/><path d="m.4 21.655a.89.89 0 0 1 -.1-.006.843.843 0 0 1 -.736-.937c.911-7.641 7.436-18.352 17.036-27.951 9.544-9.544 20.215-16.07 27.85-17.029a.843.843 0 0 1 .94.73.84.84 0 0 1 -.73.938c-7.171.9-17.718 7.4-26.87 16.55-9.2 9.2-15.7 19.786-16.562 26.963a.842.842 0 0 1 -.834.742" transform="translate(2.266 25.809)"/><path d="m.4 21.52a.842.842 0 0 1 -.112-1.676c7.268-.985 17.512-7.317 26.723-16.53s15.536-19.438 16.527-26.707a.838.838 0 0 1 .948-.721.841.841 0 0 1 .721.948c-1.041 7.617-7.555 18.219-17.007 27.666s-20.071 15.981-27.69 17.012a.762.762 0 0 1 -.11.008" transform="translate(10.898 34.298)"/><path d="m2.19 5.354a3.921 3.921 0 0 1 -1.8-.441 5.788 5.788 0 0 1 -2.845-5.238c0-3.129 2.083-5.675 4.645-5.675s4.647 2.546 4.647 5.675a5.79 5.79 0 0 1 -2.851 5.238 3.921 3.921 0 0 1 -1.8.441m0-9.672c-1.629-.001-2.959 1.791-2.959 3.993a4.166 4.166 0 0 0 1.932 3.739 2.2 2.2 0 0 0 2.062 0 4.161 4.161 0 0 0 1.932-3.739c0-2.2-1.328-3.994-2.963-3.994" transform="translate(26.793 23.372)"/><path d="m7.71 3.739h-15.51a.841.841 0 0 1 -.842-.839v-3.136a3.959 3.959 0 0 1 3.955-3.955h3.227a.841.841 0 0 1 .842.84v.157a.562.562 0 0 0 .187.422.573.573 0 0 0 .445.146.617.617 0 0 0 .511-.63v-.095a.842.842 0 0 1 .842-.84h3.233a3.959 3.959 0 0 1 3.952 3.955v3.136a.841.841 0 0 1 -.842.842m-14.668-1.687h13.826v-2.291a2.274 2.274 0 0 0 -2.268-2.273h-2.514a2.277 2.277 0 0 1 -1.913 1.559 2.26 2.26 0 0 1 -1.735-.577 2.236 2.236 0 0 1 -.632-.982h-2.493a2.274 2.274 0 0 0 -2.271 2.273z" transform="translate(29.029 33.253)"/><path d="m1.063 2.649a2.259 2.259 0 0 1 -2.255-2.255v-2.522a.841.841 0 0 1 .4-.717.836.836 0 0 1 .821-.032 2.209 2.209 0 0 0 2.062 0 .836.836 0 0 1 .821.032.841.841 0 0 1 .4.717v2.522a2.259 2.259 0 0 1 -2.249 2.255m-.571-3.629v1.374a.571.571 0 1 0 1.143 0v-1.374a3.856 3.856 0 0 1 -1.143 0" transform="translate(27.92 29.664)"/></g></svg>

<?xml version="1.0" encoding="UTF-8"?>
<svg xmlns="http://www.w3.org/2000/svg" width="57.671" height="57.668" viewBox="0 0 57.671 57.668">
  <g id="Group_1321" data-name="Group 1321" transform="translate(-2548.866 192.13)">
    <g id="Group_1095" data-name="Group 1095" transform="translate(2597.595 -192.13)">
      <path id="Path_2433" data-name="Path 2433" d="M2.108,4.215A4.477,4.477,0,0,1-2.363-.256,4.477,4.477,0,0,1,2.108-4.725,4.476,4.476,0,0,1,6.579-.256,4.476,4.476,0,0,1,2.108,4.215m0-7.258A2.791,2.791,0,0,0-.679-.256,2.79,2.79,0,0,0,2.108,2.531,2.79,2.79,0,0,0,4.9-.256,2.791,2.791,0,0,0,2.108-3.043" transform="translate(2.363 4.725)" fill="#414042"></path>
    </g>
    <g id="Group_1096" data-name="Group 1096" transform="translate(2548.866 -143.402)">
      <path id="Path_2434" data-name="Path 2434" d="M2.108,4.215A4.477,4.477,0,0,1-2.363-.256,4.477,4.477,0,0,1,2.108-4.725,4.474,4.474,0,0,1,6.577-.256,4.474,4.474,0,0,1,2.108,4.215m0-7.258A2.791,2.791,0,0,0-.679-.256,2.79,2.79,0,0,0,2.108,2.531,2.79,2.79,0,0,0,4.9-.256,2.791,2.791,0,0,0,2.108-3.043" transform="translate(2.363 4.725)" fill="#414042"></path>
    </g>
    <g id="Group_1097" data-name="Group 1097" transform="translate(2550.591 -190.703)">
      <path id="Path_2435" data-name="Path 2435" d="M22.072,25.7c-7.417,0-18.94-6.412-29.67-17.143C-21.749-5.589-28.391-21.118-22.718-26.79s21.2.969,35.35,15.12C19.287-5.016,24.547,2.252,27.443,8.8c3.007,6.793,3.116,12.079.31,14.885A7.743,7.743,0,0,1,22.072,25.7M-6.408,7.372C6.627,20.4,21.724,27.33,26.564,22.492c2.246-2.246,2.006-6.989-.66-13.014C23.088,3.118,17.953-3.969,11.444-10.48-1.591-23.513-16.69-30.436-21.528-25.6S-19.441-5.663-6.408,7.372" transform="translate(24.741 28.813)" fill="#414042"></path>
    </g>
    <g id="Group_1098" data-name="Group 1098" transform="translate(2550.687 -190.595)">
      <path id="Path_2436" data-name="Path 2436" d="M.4,21.655a.89.89,0,0,1-.1-.006.843.843,0,0,1-.736-.937C.475,13.071,7,2.36,16.6-7.239c9.544-9.544,20.215-16.07,27.85-17.029a.843.843,0,0,1,.94.73.84.84,0,0,1-.73.938c-7.171.9-17.718,7.4-26.87,16.55-9.2,9.2-15.7,19.786-16.562,26.963a.842.842,0,0,1-.834.742" transform="translate(0.445 24.274)" fill="#414042"></path>
    </g>
    <g id="Group_1099" data-name="Group 1099" transform="translate(2559.32 -181.954)">
      <path id="Path_2437" data-name="Path 2437" d="M.4,21.52a.842.842,0,0,1-.112-1.676C7.556,18.859,17.8,12.527,27.011,3.314S42.547-16.124,43.538-23.393a.838.838,0,0,1,.948-.721.841.841,0,0,1,.721.948C44.166-15.549,37.652-4.947,28.2,4.5S8.129,20.481.51,21.512A.762.762,0,0,1,.4,21.52" transform="translate(0.444 24.122)" fill="#414042"></path>
    </g>
    <g id="Group_1100" data-name="Group 1100" transform="translate(2573.204 -174.759)">
      <path id="Path_2438" data-name="Path 2438" d="M2.19,5.354a3.921,3.921,0,0,1-1.8-.441A5.788,5.788,0,0,1-2.455-.325C-2.455-3.454-.372-6,2.19-6S6.837-3.454,6.837-.325A5.79,5.79,0,0,1,3.986,4.913a3.921,3.921,0,0,1-1.8.441m0-9.672C.557-4.319-.773-2.527-.773-.325A4.166,4.166,0,0,0,1.159,3.414a2.2,2.2,0,0,0,2.062,0A4.161,4.161,0,0,0,5.153-.325c0-2.2-1.328-3.994-2.963-3.994" transform="translate(2.455 6.001)" fill="#414042"></path>
    </g>
    <g id="Group_1101" data-name="Group 1101" transform="translate(2569.253 -163.068)">
      <path id="Path_2439" data-name="Path 2439" d="M7.71,3.739H-7.8A.841.841,0,0,1-8.642,2.9V-.236A3.959,3.959,0,0,1-4.687-4.191H-1.46a.841.841,0,0,1,.842.84v.157a.562.562,0,0,0,.187.422.573.573,0,0,0,.445.146.617.617,0,0,0,.511-.63v-.095a.842.842,0,0,1,.842-.84H4.6A3.959,3.959,0,0,1,8.552-.236V2.9a.841.841,0,0,1-.842.842M-6.958,2.055H6.868V-.236A2.274,2.274,0,0,0,4.6-2.509H2.086A2.277,2.277,0,0,1,.173-.95a2.26,2.26,0,0,1-1.735-.577,2.236,2.236,0,0,1-.632-.982H-4.687A2.274,2.274,0,0,0-6.958-.236Z" transform="translate(8.642 4.191)" fill="#414042"></path>
    </g>
    <g id="Group_1102" data-name="Group 1102" transform="translate(2575.594 -165.436)">
      <path id="Path_2440" data-name="Path 2440" d="M1.063,2.649A2.259,2.259,0,0,1-1.192.394V-2.128a.841.841,0,0,1,.4-.717.836.836,0,0,1,.821-.032,2.209,2.209,0,0,0,2.062,0,.836.836,0,0,1,.821.032.841.841,0,0,1,.4.717V.394A2.259,2.259,0,0,1,1.063,2.649M.492-.98V.394a.571.571,0,1,0,1.143,0V-.98a3.856,3.856,0,0,1-1.143,0" transform="translate(1.192 2.97)" fill="#414042"></path>
    </g>
  </g>
</svg>
